src/qt/ktv/res/img/ic-check-connect-off.svg

<?xml version="1.0" encoding="UTF-8"?>
<svg id="Capa_1" data-name="Capa 1" xmlns="http://www.w3.org/2000/svg" viewBox="0 0 24 24">
  <defs>
    <style>
      .cls-1 {
        fill: #cea446;
      }
    </style>
  </defs>
  <circle id="Ellipse_601" data-name="Ellipse 601" class="cls-1" cx="12" cy="18" r="2"/>
  <g id="Group_8825" data-name="Group 8825">
    <path id="Path_18883" data-name="Path 18883" class="cls-1" d="m10,4.15c-3.01.4-5.83,1.72-8.08,3.76l1.35,1.48c1.88-1.71,4.22-2.83,6.73-3.22,0,0,0-2.02,0-2.02Z"/>
    <path id="Path_18884" data-name="Path 18884" class="cls-1" d="m14,4.15v2.02c2.51.39,4.85,1.51,6.73,3.22l1.35-1.48c-2.25-2.05-5.07-3.36-8.08-3.76Z"/>
  </g>
  <g id="Group_8826" data-name="Group 8826">
    <path id="Path_18885" data-name="Path 18885" class="cls-1" d="m10,8.19c-2.01.38-3.88,1.31-5.39,2.68l1.35,1.48c1.14-1.04,2.54-1.77,4.05-2.11v-2.05h-.01Z"/>
    <path id="Path_18886" data-name="Path 18886" class="cls-1" d="m14,8.19v2.05c1.51.34,2.9,1.07,4.05,2.11l1.35-1.48c-1.51-1.38-3.38-2.31-5.39-2.68h-.01Z"/>
  </g>
  <g id="Group_8827" data-name="Group 8827">
    <path id="Path_18887" data-name="Path 18887" class="cls-1" d="m10,12.3c-1,.3-1.93.82-2.7,1.53l1.35,1.48c.4-.36.86-.64,1.35-.85,0,0,0-2.16,0-2.16Z"/>
    <path id="Path_18888" data-name="Path 18888" class="cls-1" d="m14,12.3v2.16c.5.2.96.49,1.36.85l1.34-1.48c-.77-.7-1.7-1.23-2.7-1.53Z"/>
  </g>
  <path id="Path_18889" data-name="Path 18889" class="cls-1" d="m11,3v11.15c.66-.13,1.34-.13,2,0V3h-2Z"/>
</svg>

<?xml version="1.0" encoding="UTF-8" standalone="no"?>
<!DOCTYPE svg PUBLIC "-//W3C//DTD SVG 1.1//EN" "http://www.w3.org/Graphics/SVG/1.1/DTD/svg11.dtd">
<svg width="100%" height="100%" viewBox="0 0 24 24" version="1.1" xmlns="http://www.w3.org/2000/svg" xmlns:xlink="http://www.w3.org/1999/xlink" xml:space="preserve" xmlns:serif="http://www.serif.com/" style="fill-rule:evenodd;clip-rule:evenodd;stroke-linejoin:round;stroke-miterlimit:2;">
    <circle id="Ellipse_601" cx="12" cy="18" r="2" style="fill:rgb(255,239,0);"/>
    <g id="Group_8825">
        <path id="Path_18883" d="M10,4.15C6.99,4.55 4.17,5.87 1.92,7.91L3.27,9.39C5.15,7.68 7.49,6.56 10,6.17L10,4.15Z" style="fill:rgb(255,239,0);fill-rule:nonzero;"/>
        <path id="Path_18884" d="M14,4.15L14,6.17C16.51,6.56 18.85,7.68 20.73,9.39L22.08,7.91C19.83,5.86 17.01,4.55 14,4.15Z" style="fill:rgb(255,239,0);fill-rule:nonzero;"/>
    </g>
    <g id="Group_8826">
        <path id="Path_18885" d="M10,8.19C7.99,8.57 6.12,9.5 4.61,10.87L5.96,12.35C7.1,11.31 8.5,10.58 10.01,10.24L10.01,8.19L10,8.19Z" style="fill:rgb(255,239,0);fill-rule:nonzero;"/>
        <path id="Path_18886" d="M14,8.19L14,10.24C15.51,10.58 16.9,11.31 18.05,12.35L19.4,10.87C17.89,9.49 16.02,8.56 14.01,8.19L14,8.19Z" style="fill:rgb(255,239,0);fill-rule:nonzero;"/>
    </g>
    <g id="Group_8827">
        <path id="Path_18887" d="M10,12.3C9,12.6 8.07,13.12 7.3,13.83L8.65,15.31C9.05,14.95 9.51,14.67 10,14.46L10,12.3Z" style="fill:rgb(255,239,0);fill-rule:nonzero;"/>
        <path id="Path_18888" d="M14,12.3L14,14.46C14.5,14.66 14.96,14.95 15.36,15.31L16.7,13.83C15.93,13.13 15,12.6 14,12.3Z" style="fill:rgb(255,239,0);fill-rule:nonzero;"/>
    </g>
    <path id="Path_18889" d="M11,3L11,14.15C11.66,14.02 12.34,14.02 13,14.15L13,3L11,3Z" style="fill:rgb(255,239,0);fill-rule:nonzero;"/>
</svg>
